src/vs/workbench/browser/parts/titlebar/media/code-icon.svg

<svg id="Layer_1" data-name="Layer 1" xmlns="http://www.w3.org/2000/svg" viewBox="0 0 64 64"><title>Artboard 1</title><path d="M36.4258,51.3232l-1.5264-.6308H21.23047L17.56494,60.7715l-6.6167-18.2041-2.957,8.125H2.6689v3.9707c0,5.1523,8.3521,9.3291,18.66557,9.3291,6.14551,0,11.59813-1.4805,14.99563-3.7783l-.3701-.9248-1.0059-2.4795-.9893-2.4619,2.459-1.003.9268-.3779c-.0127-.2139-.0176-.4219-.0176-.6328s.0049-.4248.0176-.6328Z" style="fill:#0072c6"/><path d="M29.33252,29.3291a13.08927,13.08927,0,0,1-5.19727-1.04785,13.17745,13.17745,0,0,1-5.80175-4.72852H2.6689V48.0273H6.126l4.82224-13.2646,6.6167,18.2041,1.80029-4.9395H34.8965l.0654-.1718,1.0029-2.4795,1.0059-2.4912,2.4824,1.0215.5449.2265V29.3291Z" style="fill:#0072c6"/><path d="M10.94824,34.7627l6.6167,18.2041,1.80029-4.9395h1.96924V26.68164a13.08872,13.08872,0,0,1-1.438-1.24316,13.279,13.279,0,0,1-1.563-1.88575H2.6689V48.0273H6.126Z" style="fill:#3c9be4"/><path d="M21.23047,50.6924,17.56494,60.7715l-6.6167-18.2041-2.957,8.125H2.6689v3.9707c0,5.1523,8.3521,9.3291,18.66557,9.3291V50.6924Z" style="fill:#3c9be4"/><path d="M29.33252,29.3291a13.08927,13.08927,0,0,1-5.19727-1.04785,13.27026,13.27026,0,0,1-4.23877-2.84277A13.47,13.47,0,0,1,17.04932,21.207a13.15157,13.15157,0,0,1-1.04981-5.21094,13.83432,13.83432,0,0,1,.07031-1.39746C8.3271,15.7373,2.6689,19.31445,2.6689,23.55273c0,5.15528,8.35454,9.335,18.66557,9.335,5.94776,0,11.24123-1.3936,14.65673-3.5586Z" style="fill:#b8d432"/><path d="M58.666,52.1045a9.53,9.53,0,0,1-.292,2.3135l2.8506,1.164-.998,2.4805L57.3477,56.874a9.32346,9.32346,0,0,1-3.2432,3.2539l1.1875,2.8477L52.8125,64l-1.1729-2.8535a9.36869,9.36869,0,0,1-4.6259,0L45.8486,64l-2.4775-1.0244,1.1855-2.8477a9.04371,9.04371,0,0,1-3.2509-3.2539l-2.876,1.1885-.9951-2.4805,2.8525-1.164a9.53,9.53,0,0,1-.2891-2.3135,9.191,9.191,0,0,1,.2969-2.3106L37.4365,48.624l.9981-2.4775,2.8789,1.1826a9.2874,9.2874,0,0,1,3.248-3.248l-1.1875-2.876,2.4824-1.001,1.1651,2.8525a9.3925,9.3925,0,0,1,4.624,0l1.169-2.8525,2.4804,1.001-1.1855,2.876a9.67875,9.67875,0,0,1,3.2461,3.248l2.8759-1.1826.9981,2.4775-2.8496,1.1699A9.83875,9.83875,0,0,1,58.666,52.1045Zm-9.334,6.667a6.44229,6.44229,0,0,0,2.584-.5215,6.69513,6.69513,0,0,0,2.1133-1.4277,6.83265,6.83265,0,0,0,1.4375-2.126,6.56457,6.56457,0,0,0,0-5.1738,6.82938,6.82938,0,0,0-3.5508-3.5528,6.35061,6.35061,0,0,0-2.584-.5312,6.43493,6.43493,0,0,0-2.5947.5312,6.89246,6.89246,0,0,0-2.126,1.4375,6.63226,6.63226,0,0,0-1.4248,2.1153,6.67689,6.67689,0,0,0,0,5.1738A6.623,6.623,0,0,0,46.7373,58.25,6.528,6.528,0,0,0,49.332,58.7715Z" style="fill:#0072c6"/><path d="M58.666,52.1045a9.53,9.53,0,0,1-.292,2.3135l2.8506,1.164-.998,2.4805L57.3477,56.874a9.32346,9.32346,0,0,1-3.2432,3.2539l1.1875,2.8477L52.8125,64l-1.1729-2.8535a9.36869,9.36869,0,0,1-4.6259,0L45.8486,64l-2.4775-1.0244,1.1855-2.8477a9.04371,9.04371,0,0,1-3.2509-3.2539l-2.876,1.1885-.9951-2.4805,2.8525-1.164a9.53,9.53,0,0,1-.2891-2.3135,9.191,9.191,0,0,1,.2969-2.3106L37.4365,48.624l.9981-2.4775,2.8789,1.1826a9.2874,9.2874,0,0,1,3.248-3.248l-1.1875-2.876,2.4824-1.001,1.1651,2.8525a9.3925,9.3925,0,0,1,4.624,0l1.169-2.8525,2.4804,1.001-1.1855,2.876a9.67875,9.67875,0,0,1,3.2461,3.248l2.8759-1.1826.9981,2.4775-2.8496,1.1699A9.83875,9.83875,0,0,1,58.666,52.1045Zm-9.334,6.667a6.44229,6.44229,0,0,0,2.584-.5215,6.69513,6.69513,0,0,0,2.1133-1.4277,6.83265,6.83265,0,0,0,1.4375-2.126,6.56457,6.56457,0,0,0,0-5.1738,6.82938,6.82938,0,0,0-3.5508-3.5528,6.35061,6.35061,0,0,0-2.584-.5312,6.43493,6.43493,0,0,0-2.5947.5312,6.89246,6.89246,0,0,0-2.126,1.4375,6.63226,6.63226,0,0,0-1.4248,2.1153,6.67689,6.67689,0,0,0,0,5.1738A6.623,6.623,0,0,0,46.7373,58.25,6.528,6.528,0,0,0,49.332,58.7715Z" style="fill:#000c82;opacity:0.5;isolation:isolate"/><path d="M53.2686,10.66406a7.88255,7.88255,0,0,1,3.1337.625,8.25807,8.25807,0,0,1,2.5655,1.69727,7.90755,7.90755,0,0,1,1.7275,2.53222,8.08273,8.08273,0,0,1,.0108,6.25879,8.00156,8.00156,0,0,1-1.7198,2.541,8.14542,8.14542,0,0,1-2.5478,1.71973,7.74021,7.74021,0,0,1-3.1055.624H29.33252a10.42308,10.42308,0,0,1-4.15527-.834,10.63077,10.63077,0,0,1-3.397-2.2754,10.75553,10.75553,0,0,1-2.27978-3.39453,10.79636,10.79636,0,0,1,0-8.31933A10.70079,10.70079,0,0,1,21.77734,8.4453,10.81467,10.81467,0,0,1,25.1748,6.1631a10.4929,10.4929,0,0,1,4.15772-.833,10.28371,10.28371,0,0,1,1.938.1885,12.56114,12.56114,0,0,1,1.9248-2.3223A11.82117,11.82117,0,0,1,35.5898,1.457,11.82623,11.82623,0,0,1,41.334,0a11.68929,11.68929,0,0,1,4.3633.8115A11.97187,11.97187,0,0,1,49.332,3.0488a12.13663,12.13663,0,0,1,2.6153,3.3916A12.556,12.556,0,0,1,53.2686,10.66406Z" style="fill:#59b4d9"/><path d="M24.14307,24.958a11.97213,11.97213,0,0,1,0-9.19043A11.77315,11.77315,0,0,1,30.4263,9.4873a11.66122,11.66122,0,0,1,6.7446-.7139,13.88134,13.88134,0,0,1,2.126-2.5673,12.71263,12.71263,0,0,1,2.6445-1.9258A12.85994,12.85994,0,0,1,44.9785,3.083a13.27268,13.27268,0,0,1,3.3194-.417c.206,0,.3876.0459.5937.0498A11.9517,11.9517,0,0,0,45.6973.8115,11.68929,11.68929,0,0,0,41.334,0a12.00542,12.00542,0,0,0-3.001.3721A12.13608,12.13608,0,0,0,35.582,1.457a11.83732,11.83732,0,0,0-2.3886,1.7393,12.32621,12.32621,0,0,0-1.9229,2.3223,10.28371,10.28371,0,0,0-1.938-.1885,10.4724,10.4724,0,0,0-4.15527.833,10.62476,10.62476,0,0,0-5.67676,5.67284,10.71029,10.71029,0,0,0,2.27685,11.71289,10.61441,10.61441,0,0,0,2.61036,1.85351C24.31494,25.251,24.21338,25.12207,24.14307,24.958Z" style="fill:#fff;opacity:0.2;isolation:isolate"/></svg>

<svg xmlns="http://www.w3.org/2000/svg" width="64" height="64" viewBox="0 0 64 64">
  <g>
    <g>
      <path d="M36.426,51.323,34.9,50.692H21.23l-3.665,10.08-6.617-18.2L7.991,50.692H2.669v3.971c0,5.152,8.352,9.329,18.665,9.329,6.146,0,11.6-1.48,15-3.778l-.37-.925L34.954,56.81l-.989-2.462,2.459-1,.927-.378c-.013-.214-.018-.422-.018-.633s.005-.425.018-.633Z" fill="#008575"/>
      <path d="M29.333,29.329a13.077,13.077,0,0,1-5.2-1.048,13.187,13.187,0,0,1-5.8-4.728H2.669V48.027H6.126l4.822-13.264,6.617,18.2,1.8-4.94H34.9l.066-.171,1-2.48,1.006-2.491,2.482,1.021.545.227v-14.8Z" fill="#008575"/>
    </g>
    <g opacity="0.25">
      <path d="M10.948,34.763l6.617,18.2,1.8-4.94h1.969V26.682A13.074,13.074,0,0,1,19.9,25.438a13.361,13.361,0,0,1-1.563-1.885H2.669V48.027H6.126Z" fill="#fff"/>
      <path d="M21.23,50.692l-3.665,10.08-6.617-18.2L7.991,50.692H2.669v3.971c0,5.152,8.352,9.329,18.665,9.329v-13.3Z" fill="#fff"/>
    </g>
    <path d="M29.333,29.329a13.077,13.077,0,0,1-5.2-1.048A13.255,13.255,0,0,1,19.9,25.438a13.483,13.483,0,0,1-2.847-4.231A13.165,13.165,0,0,1,16,16a13.785,13.785,0,0,1,.07-1.4c-7.743,1.138-13.4,4.715-13.4,8.954,0,5.155,8.354,9.335,18.665,9.335,5.948,0,11.242-1.394,14.657-3.559Z" fill="#b8d432"/>
    <path d="M29.333,29.329a13.077,13.077,0,0,1-5.2-1.048A13.255,13.255,0,0,1,19.9,25.438a13.483,13.483,0,0,1-2.847-4.231A13.165,13.165,0,0,1,16,16a13.785,13.785,0,0,1,.07-1.4c-7.743,1.138-13.4,4.715-13.4,8.954,0,5.155,8.354,9.335,18.665,9.335,5.948,0,11.242-1.394,14.657-3.559Z" fill="#008575"/>
    <path d="M53.269,10.664a7.878,7.878,0,0,1,3.133.625,8.258,8.258,0,0,1,2.566,1.7A7.918,7.918,0,0,1,60.7,15.519a8.08,8.08,0,0,1,.011,6.258,7.984,7.984,0,0,1-1.72,2.541,8.138,8.138,0,0,1-2.547,1.72,7.741,7.741,0,0,1-3.106.624h-24a10.418,10.418,0,0,1-4.156-.834,10.642,10.642,0,0,1-3.4-2.275,10.779,10.779,0,0,1-2.28-3.395,10.8,10.8,0,0,1,0-8.319,10.706,10.706,0,0,1,2.277-3.394,10.821,10.821,0,0,1,3.4-2.282,10.486,10.486,0,0,1,4.158-.833,10.28,10.28,0,0,1,1.937.189A12.579,12.579,0,0,1,33.2,3.2a11.88,11.88,0,0,1,2.4-1.739A11.822,11.822,0,0,1,41.334,0,11.7,11.7,0,0,1,45.7.811a11.875,11.875,0,0,1,6.25,5.629A12.565,12.565,0,0,1,53.269,10.664Z" fill="#008575"/>
    <path d="M24.143,24.958a11.971,11.971,0,0,1,0-9.19,11.778,11.778,0,0,1,6.283-6.281,11.685,11.685,0,0,1,6.745-.714A13.873,13.873,0,0,1,39.3,6.206,12.733,12.733,0,0,1,41.941,4.28a12.92,12.92,0,0,1,3.037-1.2,13.3,13.3,0,0,1,3.32-.417c.206,0,.387.046.594.05A11.934,11.934,0,0,0,45.7.811,11.7,11.7,0,0,0,41.334,0a11.883,11.883,0,0,0-5.752,1.457A11.9,11.9,0,0,0,33.193,3.2,12.374,12.374,0,0,0,31.27,5.519a10.28,10.28,0,0,0-1.937-.189,10.469,10.469,0,0,0-4.156.833A10.624,10.624,0,0,0,19.5,11.836a10.711,10.711,0,0,0,2.277,11.713A10.616,10.616,0,0,0,24.388,25.4C24.315,25.251,24.213,25.122,24.143,24.958Z" fill="#fff" opacity="0.2" style="isolation: isolate"/>
    <path d="M58.665,52.105a9.5,9.5,0,0,1-.292,2.313l2.851,1.164-1,2.481-2.879-1.189A9.322,9.322,0,0,1,54.1,60.128l1.187,2.848L52.812,64l-1.173-2.853a9.369,9.369,0,0,1-4.626,0L45.848,64l-2.477-1.024,1.185-2.848a9.054,9.054,0,0,1-3.251-3.254l-2.876,1.189-1-2.481,2.853-1.164A9.494,9.494,0,0,1,40,52.105a9.2,9.2,0,0,1,.3-2.311l-2.858-1.17,1-2.477,2.879,1.182a9.286,9.286,0,0,1,3.248-3.248l-1.188-2.876,2.483-1,1.165,2.853a9.392,9.392,0,0,1,4.624,0L52.814,40.2l2.48,1-1.185,2.876a9.669,9.669,0,0,1,3.246,3.248l2.876-1.182,1,2.477-2.85,1.17A9.811,9.811,0,0,1,58.665,52.105Zm-9.334,6.667a6.434,6.434,0,0,0,2.584-.522,6.7,6.7,0,0,0,2.114-1.428A6.82,6.82,0,0,0,55.466,54.7a6.565,6.565,0,0,0,0-5.173,6.819,6.819,0,0,0-3.551-3.553,6.34,6.34,0,0,0-2.584-.531,6.422,6.422,0,0,0-2.594.531,6.879,6.879,0,0,0-2.126,1.437,6.632,6.632,0,0,0-1.425,2.116,6.669,6.669,0,0,0,0,5.173,6.626,6.626,0,0,0,3.551,3.554A6.517,6.517,0,0,0,49.331,58.772Z" fill="#008575"/>
    <path d="M29.333,29.329a13.077,13.077,0,0,1-5.2-1.048A13.255,13.255,0,0,1,19.9,25.438a13.483,13.483,0,0,1-2.847-4.231A13.165,13.165,0,0,1,16,16a13.785,13.785,0,0,1,.07-1.4c-7.743,1.138-13.4,4.715-13.4,8.954,0,5.155,8.354,9.335,18.665,9.335,5.948,0,11.242-1.394,14.657-3.559Z" fill="#fff" opacity="0.55"/>
  </g>
  <rect width="64" height="64" fill="none"/>
</svg>
